!!!COM: Schubert, Franz
!!!CNT: Deutscher
!!!TXO: Deutsch
!!!OTL: "Wohin?"
!!!OPR: Die schoene Muellerin
!!!LYR: Mu2ller, Wilhelm
!!!OPS: Opus 25
!!!ONM: No. 2
!!!ODT: 1823/
!!NB: Vocal melody only encoded.
**kern	**silbe
*clefG2	*
*G:	*
*k[f#]	*
*M2/4	*
*MM[moderato]	*
!! tempo indication: massig
=2	=2
4r	.
8r	.
{16b	{Ich
16cc	|
=3	=3
8dd	ho2rt
8dd	ein
8dd	Ba2ch-
8dd	-lein
=4	=4
8.dd	rau-
16b	|
8g}	-schen}
{16b	{wohl
16g	|
=5	=5
8d	aus
8d	dem
16d	Fel-
16f#	|
16a	-sen-
16f#	|
=6	=6
4g}	-quell}
8r	.
{16b	{hin-
16cc	|
=7	=7
8dd	ab
8dd	zum
8dd	Tha-
8dd	-le
=8	=8
8.d	rau-
16b	|
8g}	-schen,}
{16b	{so
16g	|
=9	=9
8d	frisch
8d	und
16d	wun-
16f#	|
16a	-der-
16f#	|
=10	=10
4g}	-hell}
8r	.
{8b	{Ich
=11	=11
(16cc	weiss
16b)	|
8b	nicht,
8b	wie
8a	mir
=12	=12
(16a	wur-
16g#)	|
8g#}	-de}
8r	.
{8g#	{nicht
=13	=13
8a	wer
8a	den
8ee	Rath
16ee	mir
16dd	|
=14	=14
4cc}	gab}
8r	.
{8a	{ich
=15	=1
16b	muss-
16cc	|
16b	-te
16cc	|
8dd	auch
8dd	hin-
=16	=16
8.dd	-un-
16b	|
8g}	-ter}
{16b	{mit
16g	|
=17	=17
8d	mei-
8d	-nem
16d	Wan-
16f#	|
16a	-der-
16f#	|
=18	=18
4g}	-stab}
8r	.
{16b	{ich
16cc	|
=19	=19
8dd	muss-
8dd	-te
8dd	auch
(eeq	hin-
16dd	|
16cc#)	|
=20	=20
8.dd	-un-
16b	|
8g}	-ter}
{16b	{mit
16g	|
=21	=21
8d	mei-
8d	-nem
16d	Wan-
16f#	|
16a	-der-
16f#	|
=22	=22
4g}	-stab}
8r	.
{8b	{Hin-
=23	=23
8cc	-un-
16b	-ter
16b	und
8a#	im-
8b	-mer
=24	=24
4g	wei-
8e}	-ter}
{16f#	{und
16g	|
=25	=25
8b	im-
16a	-mer
16a	dem
8g#	Ba-
8a	-che
=26	=26
4f#}	nach}
8r	.
{8dd	{und
=27	=27
8dd	im-
8d	-mer
16d	hel-
16f#	|
16a	-ler
16dd	|
=28	=28
4dd	rausch-
8b}	-te}
{16dd	{und
16b	|
=29	=29
8.a	im-
16f#	-mer
16a	hel-
16g	|
16f#	-ler
16e	der
=30	=30
8e	Bach
8f#}	|}
8r	.
{8dd	{und
=31	=31
8dd	im-
8d	-mer
16d	hel-
16f#	|
16a	-ler
16dd	|
=32	=32
4dd	rausch-
8b}	-te}
{16dd	{und
16b	|
=33	=33
16a	im-
16dd	|
16ff#	-mer
16dd	|
16a	hel-
16g	|
16f#	-ler
16e	der
=34	=34
4d}	Bach}
4r	.
=35	=35
4r	.
8r	.
{8e	{Ist
=36	=36
8e	das
8e	denn
8e	mei-
8e	-ne
=37	=37
8a	Stra-
8a}	-sse?}
8r	.
16r	.
{16a	{O
=38	=38
8a	Ba2ch-
8a	-lein
8.a#	sprich
16a#	wo-
=39	=39
4b}	-hin?}
8r	.
{8e	{wo-
=40	=40
8dd#	-hin?
8b	|
8.ee	sprich
16ee	wo-
=41	=41
8dd#	-hin?
8b}	|}
8r	.
{8b	{du
=42	=42
8cc	hast
8b	mit
8a#	dei-
8b	-nem
=43	=43
4g	Rau-
8e}	-schen}
{8b	{mir
=44	=44
16dd	ganz
16cc	|
8b	be-
8a#	-rauscht
8b	den
=45	=45
4g}	Sinn,}
8r	.
{8b	{du
=46	=46
8ee	hast
8e	mit
16e	dei-
16g	|
16b	-nem
16ee	|
=47	=47
4ee	Rau-
8cc}	-schen}
{16ee	{mir
16cc	|
=48	=48
8.b	ganz
16g	be-
16b	-rauscht
16a	|
16g	den
16f#	|
=49	=49
4e}	Sinn.}
8r	.
{8g	{Was
=50	=50
8.g	sag
16g	ich
8a	denn
8b	vom
=51	=51
8g#	Rau-
8a}	-schen?}
8r	.
{8ee	{das
=52	=52
8dd	kann
8ee	kein
16dd	Rau-
16cc	|
16b	-schen
16a	|
=53	=53
4g}	sein.}
8r	.
{16b	{es
16cc	|
=54	=54
8dd	sin-
8dd	-gen
8dd	wohl
32ee	die
32dd	|
16cc#	|
=55	=55
8.dd	Ni-
16b	|
8g}	-xen}
{16b	{tief
16g	|
=56	=56
8d	un-
8d	-ten
16d	ih-
16f#	|
16a	-ren
16f#	|
=57	=57
4g}	Reihn.}
8r	.
{16b	{es
16cc#	|
=58	=58
8dd	sin-
8dd	-gen
8dd	wohl
32ee	die
32dd	|
16cc#	|
=59	=59
8.dd	Ni-
16b	|
8g}	-xen}
{16b	{tief
16g	|
=60	=60
8d	un-
8d	-ten
16d	ih-
16f#	|
16a	-ren
16f#	|
=61	=61
4g}	Reihn.}
8r	.
{8b	{Lass
=62	=62
8cc	sin-
16b	-gen,
16b	Ge-
8a#	-sell,
8b	lass
=63	=63
4g	rau-
8e}	-schen,}
{16f#	{und
16g	|
=64	=64
8b	wan-
8a	d're
8g#	fro2h-
8a	-lich
=65	=65
4f#}	nach,}
8r	.
{8d	{es
=66	=66
8g	geh'n
8g	ja
16g	Mu2h-
16b	|
16dd	-len-
16b	|
=67	=67
4b	-ra2-
8a}	-der}
{16ee	{in
16cc	|
=68	=68
8.b	je-
16b	-dem
16dd	kla-
16cc	|
16b	-ren
16a	|
=69	=69
8a	Bach,
8b}	|}
8r	.
{8d	{es
=70	=70
8g	geh'n
8g	ja
16g	Mu2h-
16dd	|
16cc	-len-
16b	|
=71	=71
4b	-ra2-
16a	-der
16gg}	|}
{16ff#	{in
16ee	|
=72	=72
8.dd	je-
16b	-dem
16dd	kla-
16cc	|
16b	-ren
16a	|
=73	=73
4g}	Bach.}
8r	.
{16b	{Lass
16g	|
=74	=74
8d	sin-
16d	-gen,
16d	Ge-
16d	-sell,
16f#	|
16a	lass
16f#	-
=75	=75
4g	rau-
8d}	-schen,}
{16b	{und
16g	|
=76	=76
8d	wan-
8d	-d're
16d	fro2h-
16f#	|
16a	-lich
16f#	|
=77	=77
4g}	nach,}
{16d	{fro2h-
16f#	|
16a	-lich
16f#	|
=78	=78
4g	nach,
8dd	fro2h-
8dd	-lich
=79	=79
[2dd	nach.
=80	=80
4dd]}	|}
4r	.
*-	*-
